dist/svg/static/vehicle-signal-large.svg

<svg xmlns="http://www.w3.org/2000/svg" width="48" height="48" viewBox="0 0 48 48"><g fill="none" stroke="currentColor" stroke-miterlimit="10"><path d="M10.5 19c-3 1.9-3.9 6-2 9M8 13c-5.5 4.4-6.9 12.6-4 19M13 22.5h2.479M12.8 25.5s.8.2 1.9.5c.9.3 1.3.5 1.4 1.4.2 1.1.6 1.6-1.1 1.3s-2.5-.7-2.5-.7M35 22.5h-2.47M35.2 25.5s-.8.2-1.9.5c-.9.3-1.3.5-1.4 1.4-.2 1.1-.6 1.6 1.1 1.3s2.5-.6 2.5-.6"/><path d="M31.5 32.5v2h2.9c.5 0 1.1-.4 1.1-1v-4.7c0-3.8-.7-4.2-.7-4.2l-1.5-1.1s-.8-.8-1.6-2.5c-.7-1.5-2.1-1.5-2.1-1.5H18.4s-1.4 0-2.1 1.5c-.8 1.7-1.6 2.5-1.6 2.5l-1.5 1.1s-.7.4-.7 4.2v4.7c0 .5.5 1 1.1 1h2.9v-2h15z"/><path d="M20.2 27.5h7.7l1.5 1-1.5 2h-7.7l-1.6-2zM33.316 23.5H14.702M39.5 28c1.9-3 1-7.1-2-9M44 32c2.9-6.4 1.5-14.6-4-19"/></g></svg>

<?xml version="1.0" encoding="UTF-8" standalone="no"?>
<svg width="48px" height="48px" viewBox="0 0 48 48" version="1.1" xmlns="http://www.w3.org/2000/svg" xmlns:xlink="http://www.w3.org/1999/xlink">
    <!-- Generator: sketchtool 46.2 (44496) - http://www.bohemiancoding.com/sketch -->
    <title>vehicle-signal-large</title>
    <desc>Created with sketchtool.</desc>
    <defs></defs>
    <g id="icons-published" stroke="none" stroke-width="1" fill="none" fill-rule="evenodd">
        <g id="briefing" transform="translate(0.000000, -2330.000000)"></g>
        <g id="vehicle-signal-large" stroke="#000000">
            <path d="M10.5,19 C7.5,20.9 6.6,25 8.5,28 M8,13 C2.5,17.4 1.1,25.6 4,32 M13,22.5 L15.5,22.5 M12.8,25.5 C12.8,25.5 13.6,25.7 14.7,26 C15.6,26.3 16,26.5 16.1,27.4 C16.3,28.5 16.7,29 15,28.7 C13.3,28.4 12.5,28 12.5,28 M35,22.5 L32.5,22.5 M35.2,25.5 C35.2,25.5 34.4,25.7 33.3,26 C32.4,26.3 32,26.5 31.9,27.4 C31.7,28.5 31.3,29 33,28.7 C34.7,28.4 35.5,28.1 35.5,28.1" id="Shape"></path>
            <path d="M31.5,32.5 L31.5,34.5 L34.4,34.5 C34.9,34.5 35.5,34.1 35.5,33.5 L35.5,28.8 C35.5,25 34.8,24.6 34.8,24.6 L33.3,23.5 C33.3,23.5 32.5,22.7 31.7,21 C31,19.5 29.6,19.5 29.6,19.5 L18.4,19.5 C18.4,19.5 17,19.5 16.3,21 C15.5,22.7 14.7,23.5 14.7,23.5 L13.2,24.6 C13.2,24.6 12.5,25 12.5,28.8 L12.5,33.5 C12.5,34 13,34.5 13.6,34.5 L16.5,34.5 L16.5,32.5 L31.5,32.5 Z" id="Shape"></path>
            <path d="M20.2,27.5 L27.9,27.5 L29.4,28.5 L27.9,30.5 L20.2,30.5 L18.6,28.5 L20.2,27.5 Z M33.3,23.5 L14.7,23.5 L33.3,23.5 Z" id="Shape"></path>
            <path d="M39.5,28 C41.4,25 40.5,20.9 37.5,19" id="Path"></path>
            <path d="M44,32 C46.9,25.6 45.5,17.4 40,13" id="Path"></path>
        </g>
    </g>
</svg>
